X: 21161
T: Norea's Wish
%R: air, march
B: James Oswald "The Caledonian Pocket Companion" v.2 p.116 #1
Z: 2018 John Chambers <jc:trillian.mit.edu>
M: 2/4
L: 1/8
K: G
|:"_Slow"\
(B<d) (F<G) | TE2D2 | (B<d) (F<G) | TE2D2 |\
c2(B<g) | e2(d<B) | (Ae) (d/c/B/A/) | (G2F)z |\
(B<d) (F<G) | TE2D2 |
(B<d) (F<G) | TE2D2 |\
c2(B<g) | d(B/d/) TAG | (Ac) (EF) | G4 ::\
B2(ed) | c2(a<f) | (a<f) (a<f) | (f2e)z |
(f<a) (^c<d) | (B2A)g | (fd)(B^c) | d3B |\
(^GB)(d=f) | e(d/c/) B(A/=G/) | (Fe)(dc) | (c2B)c |\
(dB)(ge) | (dB)(ge) |
dg (f/e/d/c/) | (B2A)z |\
(B<d) (F<G) | TE2D2 | (B<d) (F<G) | (E2D)B |\
(c2B)g | e2 (g/e/)(d/B/) | (Ac) FA | G4 :|


